libs/icons/src/svg/file.svg

<svg width="16" height="16" viewBox="0 0 16 16" fill="none" xmlns="http://www.w3.org/2000/svg">
<g clip-path="url(#clip0_3_3735)">
<path fill-rule="evenodd" clip-rule="evenodd" d="M10.4378 -3.39423e-09H1.99998C1.63179 -3.39423e-09 1.33331 0.298477 1.33331 0.666667V15.3333C1.33331 15.7015 1.63179 16 1.99998 16H14C14.3682 16 14.6666 15.7015 14.6666 15.3333V4.66667C14.6666 4.50339 14.6067 4.34579 14.4983 4.22376L10.9427 0.223757C10.8312 0.0983314 10.6771 0.0201967 10.5118 0.00340988C10.4873 0.000908839 10.4626 -0.000237156 10.4378 -3.39423e-09ZM9.77765 1.33333V4.66666C9.77765 5.03485 10.0761 5.33333 10.4443 5.33333H13.3333V14.6667H2.66665V1.33333H9.77765Z" fill="#202327"/>
<path fill-rule="evenodd" clip-rule="evenodd" d="M3.99998 6C3.99998 5.63181 4.29846 5.33333 4.66665 5.33333H7.99998C8.36817 5.33333 8.66665 5.63181 8.66665 6C8.66665 6.36819 8.36817 6.66667 7.99998 6.66667H4.66665C4.29846 6.66667 3.99998 6.36819 3.99998 6Z" fill="#202327"/>
<path fill-rule="evenodd" clip-rule="evenodd" d="M3.99998 8.66667C3.99998 8.29848 4.29846 8 4.66665 8H11.3333C11.7015 8 12 8.29848 12 8.66667C12 9.03486 11.7015 9.33333 11.3333 9.33333H4.66665C4.29846 9.33333 3.99998 9.03486 3.99998 8.66667Z" fill="#202327"/>
<path fill-rule="evenodd" clip-rule="evenodd" d="M3.99998 11.3333C3.99998 10.9651 4.29846 10.6667 4.66665 10.6667H11.3333C11.7015 10.6667 12 10.9651 12 11.3333C12 11.7015 11.7015 12 11.3333 12H4.66665C4.29846 12 3.99998 11.7015 3.99998 11.3333Z" fill="#202327"/>
</g>
<defs>
<clipPath id="clip0_3_3735">
<rect width="16" height="16" fill="white"/>
</clipPath>
</defs>
</svg>

<svg xmlns="http://www.w3.org/2000/svg" viewBox="0 0 16 16" class="sageicon"><path fill-rule="evenodd" d="M10.438 0H2a.667.667 0 0 0-.667.667v14.666c0 .368.299.667.667.667h12a.667.667 0 0 0 .667-.667V4.667c0-.164-.06-.321-.169-.443l-3.555-4A.667.667 0 0 0 10.438 0Zm-.66 1.333v3.334c0 .368.298.666.666.666h2.89v9.334H2.666V1.333h7.11Z"/><path fill-rule="evenodd" d="M4 6c0-.368.298-.667.667-.667H8a.667.667 0 0 1 0 1.334H4.667A.667.667 0 0 1 4 6ZM4 8.667C4 8.298 4.298 8 4.667 8h6.666a.667.667 0 1 1 0 1.333H4.667A.667.667 0 0 1 4 8.667ZM4 11.333c0-.368.298-.666.667-.666h6.666a.667.667 0 1 1 0 1.333H4.667A.667.667 0 0 1 4 11.333Z"/></svg>
